poi/svg/2306.svg

<?xml version="1.0" encoding="UTF-8" standalone="no"?>
<svg
   xmlns:dc="http://purl.org/dc/elements/1.1/"
   xmlns:cc="http://creativecommons.org/ns#"
   xmlns:rdf="http://www.w3.org/1999/02/22-rdf-syntax-ns#"
   xmlns:svg="http://www.w3.org/2000/svg"
   xmlns="http://www.w3.org/2000/svg"
   xmlns:sodipodi="http://sodipodi.sourceforge.net/DTD/sodipodi-0.dtd"
   xmlns:inkscape="http://www.inkscape.org/namespaces/inkscape"
   inkscape:version="1.0 (4035a4fb49, 2020-05-01)"
   sodipodi:docname="2306.svg"
   id="svg20"
   version="1.2"
   viewBox="0 0 42.519639 42.519639"
   height="14.999999mm"
   width="14.999999mm">
  <metadata
     id="metadata24">
    <rdf:RDF>
      <cc:Work
         rdf:about="">
        <dc:format>image/svg+xml</dc:format>
        <dc:type
           rdf:resource="http://purl.org/dc/dcmitype/StillImage" />
        <dc:title>Qt SVG Document</dc:title>
      </cc:Work>
    </rdf:RDF>
  </metadata>
  <sodipodi:namedview
     inkscape:current-layer="svg20"
     inkscape:window-maximized="0"
     inkscape:window-y="0"
     inkscape:window-x="0"
     inkscape:cy="28.346482"
     inkscape:cx="28.346482"
     inkscape:zoom="5.8410537"
     showgrid="false"
     id="namedview22"
     inkscape:window-height="480"
     inkscape:window-width="1034"
     inkscape:pageshadow="2"
     inkscape:pageopacity="0"
     guidetolerance="10"
     gridtolerance="10"
     objecttolerance="10"
     borderopacity="1"
     bordercolor="#666666"
     pagecolor="#ffffff" />
  <title
     id="title2">Qt SVG Document</title>
  <desc
     id="desc4">Generated with Qt</desc>
  <defs
     id="defs6" />
  <g
     transform="translate(5.25984,5.25984)"
     id="g18"
     stroke-linejoin="bevel"
     stroke-linecap="square"
     fill-rule="evenodd"
     stroke-width="1"
     stroke="#000000"
     fill="none">
    <g
       id="g10"
       font-style="normal"
       font-weight="400"
       font-size="7.8px"
       font-family="'MS Shell Dlg 2'"
       stroke="none"
       fill-opacity="1"
       fill="#ef4b65">
      <path
         id="path8"
         d="M 37.2598,16 C 37.2598,27.7415 27.7415,37.2598 16,37.2598 4.25851,37.2598 -5.25984,27.7415 -5.25984,16 -5.25984,4.25851 4.25851,-5.25984 16,-5.25984 27.7415,-5.25984 37.2598,4.25851 37.2598,16"
         fill-rule="evenodd"
         vector-effect="non-scaling-stroke" />
    </g>
    <g
       id="g14"
       font-style="normal"
       font-weight="400"
       font-size="7.8px"
       font-family="'MS Shell Dlg 2'"
       transform="translate(16,12.5984)"
       stroke="none"
       fill-opacity="0.94902"
       fill="#ffffff">
      <path
         id="path12"
         d="m 13.5547,-0.194336 h -27.043 L -8.63818,-3.80566 H 8.78857 l 4.76613,3.611324 M -3.95605,3.94189 C -4.04004,3.99788 -4.13102,4.04688 -4.229,4.08887 -4.32699,4.13086 -4.40397,4.19385 -4.45996,4.27783 L -5.57275,5.83154 C -5.69873,5.94352 -5.76172,6.0555 -5.76172,6.16748 V 9.2749 H -12.4175 V 0.58252 H 12.5679 V 5.47461 L 11.665,4.27783 C 11.5811,4.05387 11.3361,3.94189 10.9302,3.94189 c -0.084,0 -0.154,0.014 -0.21,0.042 -0.056,0.02799 -0.133,0.04199 -0.2309,0.04199 V 2.59814 H 7.96973 V 4.19385 C 7.78776,4.02588 7.5708,3.94189 7.31885,3.94189 c -0.37793,0 -0.60889,0.11198 -0.69287,0.33594 L 5.4292,5.83154 4.82031,4.92871 V 2.59814 H 2.1958 V 5.18066 L 1.81787,5.83154 H 1.73389 L 0.64209,4.27783 C 0.502116,4.05387 0.26416,3.94189 -0.0717773,3.94189 c -0.3219397,0 -0.5528967,0.11198 -0.6928707,0.33594 L -1.33154,5.0127 V 2.59814 H -3.95605 V 3.94189 M -7.56738,2.59814 h -2.58252 v 3.40137 h 2.58252 V 2.59814 M 12.085,9.2749 h 0.8188 v 0.9028 H 12.085 v 1.0708 h 0.8188 v 0.5879 H 12.085 v 0.9029 H 9.85938 V 11.8364 H 8.38965 v 0.9029 H 6.16406 V 11.8364 H 4.69434 v 0.9029 H 2.44775 V 11.8364 H 1.04102 v 0.9029 h -2.28858 v -0.9029 h -1.32275 v 0.9029 H -4.94287 V 6.16748 l 1.17578,-1.5957 1.19678,1.5957 V 9.2749 h 1.32275 V 6.16748 L -0.0717773,4.57178 1.125,6.16748 H 1.04102 V 9.2749 H 2.44775 V 6.16748 l 1.17579,-1.5957 1.0708,1.5957 V 9.2749 H 6.16406 V 6.16748 l 1.15479,-1.5957 1.0708,1.5957 V 9.2749 H 9.85938 V 6.16748 l 1.07082,-1.5957 1.1548,1.5957 V 9.2749 m -13.33256,1.9736 v -1.0708 h -1.32275 v 1.0708 h 1.32275 m 3.69531,0 V 10.1777 H 1.04102 v 1.0708 h 1.40673 m 3.71631,0 V 10.1777 H 4.69434 v 1.0708 H 6.16406 M 9.85938,10.1777 H 8.38965 v 1.0708 h 1.46973 v -1.0708"
         fill-rule="evenodd"
         vector-effect="none" />
    </g>
    <g
       id="g16"
       font-style="normal"
       font-weight="400"
       font-size="7.8px"
       font-family="'MS Shell Dlg 2'"
       stroke="none"
       fill-opacity="1"
       fill="#ef4b65" />
  </g>
</svg>

<?xml version="1.0" encoding="UTF-8" standalone="no"?>
<svg width="11.2889mm" height="11.2889mm"
 viewBox="0 0 32 32"
 xmlns="http://www.w3.org/2000/svg" xmlns:xlink="http://www.w3.org/1999/xlink"  version="1.2" baseProfile="tiny">
<title>Qt SVG Document</title>
<desc>Generated with Qt</desc>
<defs>
</defs>
<g fill="none" stroke="black" stroke-width="1" fill-rule="evenodd" stroke-linecap="square" stroke-linejoin="bevel" >

<g fill="#ef4b65" fill-opacity="1" stroke="none" transform="matrix(1,0,0,1,0,0)"
font-family="MS Shell Dlg 2" font-size="7.8" font-weight="400" font-style="normal" 
>
<path vector-effect="non-scaling-stroke" fill-rule="evenodd" d="M37.2598,16 C37.2598,27.7415 27.7415,37.2598 16,37.2598 C4.25851,37.2598 -5.25984,27.7415 -5.25984,16 C-5.25984,4.25851 4.25851,-5.25984 16,-5.25984 C27.7415,-5.25984 37.2598,4.25851 37.2598,16 "/>
</g>

<g fill="#ffffff" fill-opacity="0.94902" stroke="none" transform="matrix(1,0,0,1,16,12.5984)"
font-family="MS Shell Dlg 2" font-size="7.8" font-weight="400" font-style="normal" 
>
<path vector-effect="none" fill-rule="evenodd" d="M13.5547,-0.194336 L-13.4883,-0.194336 L-8.63818,-3.80566 L8.78857,-3.80566 L13.5547,-0.194336 M-3.95605,3.94189 C-4.04004,3.99788 -4.13102,4.04688 -4.229,4.08887 C-4.32699,4.13086 -4.40397,4.19385 -4.45996,4.27783 L-5.57275,5.83154 C-5.69873,5.94352 -5.76172,6.0555 -5.76172,6.16748 L-5.76172,9.2749 L-12.4175,9.2749 L-12.4175,0.58252 L12.5679,0.58252 L12.5679,5.47461 L11.665,4.27783 C11.5811,4.05387 11.3361,3.94189 10.9302,3.94189 C10.8462,3.94189 10.7762,3.95589 10.7202,3.98389 C10.6642,4.01188 10.5872,4.02588 10.4893,4.02588 L10.4893,2.59814 L7.96973,2.59814 L7.96973,4.19385 C7.78776,4.02588 7.5708,3.94189 7.31885,3.94189 C6.94092,3.94189 6.70996,4.05387 6.62598,4.27783 L5.4292,5.83154 L4.82031,4.92871 L4.82031,2.59814 L2.1958,2.59814 L2.1958,5.18066 L1.81787,5.83154 L1.73389,5.83154 L0.64209,4.27783 C0.502116,4.05387 0.26416,3.94189 -0.0717773,3.94189 C-0.393717,3.94189 -0.624674,4.05387 -0.764648,4.27783 L-1.33154,5.0127 L-1.33154,2.59814 L-3.95605,2.59814 L-3.95605,3.94189 M-7.56738,2.59814 L-10.1499,2.59814 L-10.1499,5.99951 L-7.56738,5.99951 L-7.56738,2.59814 M12.085,9.2749 L12.9038,9.2749 L12.9038,10.1777 L12.085,10.1777 L12.085,11.2485 L12.9038,11.2485 L12.9038,11.8364 L12.085,11.8364 L12.085,12.7393 L9.85938,12.7393 L9.85938,11.8364 L8.38965,11.8364 L8.38965,12.7393 L6.16406,12.7393 L6.16406,11.8364 L4.69434,11.8364 L4.69434,12.7393 L2.44775,12.7393 L2.44775,11.8364 L1.04102,11.8364 L1.04102,12.7393 L-1.24756,12.7393 L-1.24756,11.8364 L-2.57031,11.8364 L-2.57031,12.7393 L-4.94287,12.7393 L-4.94287,6.16748 L-3.76709,4.57178 L-2.57031,6.16748 L-2.57031,9.2749 L-1.24756,9.2749 L-1.24756,6.16748 L-0.0717773,4.57178 L1.125,6.16748 L1.04102,6.16748 L1.04102,9.2749 L2.44775,9.2749 L2.44775,6.16748 L3.62354,4.57178 L4.69434,6.16748 L4.69434,9.2749 L6.16406,9.2749 L6.16406,6.16748 L7.31885,4.57178 L8.38965,6.16748 L8.38965,9.2749 L9.85938,9.2749 L9.85938,6.16748 L10.9302,4.57178 L12.085,6.16748 L12.085,9.2749 M-1.24756,11.2485 L-1.24756,10.1777 L-2.57031,10.1777 L-2.57031,11.2485 L-1.24756,11.2485 M2.44775,11.2485 L2.44775,10.1777 L1.04102,10.1777 L1.04102,11.2485 L2.44775,11.2485 M6.16406,11.2485 L6.16406,10.1777 L4.69434,10.1777 L4.69434,11.2485 L6.16406,11.2485 M9.85938,10.1777 L8.38965,10.1777 L8.38965,11.2485 L9.85938,11.2485 L9.85938,10.1777"/>
</g>

<g fill="#ef4b65" fill-opacity="1" stroke="none" transform="matrix(1,0,0,1,0,0)"
font-family="MS Shell Dlg 2" font-size="7.8" font-weight="400" font-style="normal" 
>
</g>
</g>
</svg>
